X:181
T:Long Odds
R:hp 16 reel
C:Trad arr. P J Headford
S:Twenty-Four Dances of the Year, 1791. Pub. Preston
Z:P Headford
M:2/4
L:1/8
Q:1/4=120
K:G
|:DG GA|B2BG|c2cA|BG FE|\
DG GA|Bc dB|ec AF|1G2 FE:|2G2 Bd||
|:eg fe|edd2|ce dc|cBB2|\
AB cA|Bc dB|1ec AG|GFED:|2ec AF|G2 FE|]

